svg/u1f3f4.svg

<svg viewBox="0 0 128 128" xmlns="http://www.w3.org/2000/svg">
  <path d="M17.99,18.27c-0.18-1.27-0.39-6.82-5.23-6.33c-4.04,0.41-3.82,4.76-3.43,6.79 c0.22,1.15,13,102.42,13.17,103.52c0.23,1.47,2.28,3,4.62,2.76c2.34-0.23,3.71-2.05,3.66-3.78C30.74,119.91,18.23,20,17.99,18.27z" fill="#B0B0B0"/>
  <path d="M25.84,118.75c-0.62,0-1.16-0.46-1.24-1.09L11.5,16.54c-0.09-0.68,0.39-1.31,1.08-1.4 c0.69-0.09,1.31,0.4,1.4,1.08l13.1,101.12c0.09,0.68-0.39,1.31-1.08,1.4C25.95,118.75,25.9,118.75,25.84,118.75z" fill="#C8C8C8"/>
  <path d="M18.08,19.17l8.1,65.02c0,0,2.69-3.5,10.2-3.35c5.22,0.11,13.2,1.22,23.61-2.27 c13.82-4.63,21.48-12.51,36.58-15.15c11.39-1.99,21.78,0.14,22.04-0.49c0.21-0.49-0.32-3.87-0.37-3.86 c-1,0.16-32.31-18.43-32.31-18.43L21.39,17.26c0,0-0.65,0.44-1.85,1.04C18.62,18.75,18.08,19.17,18.08,19.17z" fill="#2F2F2F"/>
  <path d="M21.36,17.23c0,0,2.56-2.03,8.82-2.46c10.97-0.76,15.94,2.46,25.84,0.29 c10.91-2.4,18.23-9.99,29.66-11.47c13.03-1.69,21.33,2.35,21.33,2.35s3.77,12.03,6.2,25.53c2.25,12.53,5.03,27.61,5.03,27.61 l-3.45-0.51l-92.8-36.38L21.36,17.23z" fill="#434343"/>
  <path d="M104.53,8.47c-1.11-0.87-12.38-4.09-22.66-1.24s-15.23,8.91-25.26,11.27s-17.83-0.8-23.4-0.35 c-9.29,0.74-11.31,3.46-11.31,3.46l6.73,55.82c0,0,3.25-0.96,8.05-0.89c7.22,0.1,12.45,0.65,21-1.82s20.66-10.45,32.26-14.04 c14.11-4.37,25.59-1.61,25.48-2.06c-0.11-0.46-2.97-15.48-5.7-29.71C107.01,14.66,104.53,8.47,104.53,8.47z" fill="#434343"/>
  <path d="M67.4,19.85c-0.4,2.42,1.36,21.45-0.89,30.04s-6.93,15.13-9.96,18.06s-4.59,4.59-4.1,5.17 s7.71-2.05,15.32-6.54s10.74-7.03,11.52-8.2s3.22-9.56,4.29-18.54s2.06-21.06,2.54-24.3c0.39-2.64,1.37-5.37,0.78-5.56 c-0.59-0.2-6.1,0.46-10.64,2.73C71.59,15.05,67.74,17.76,67.4,19.85z" fill="#787878"/>
  <path d="M26.69,23.25C26.4,25,27.96,41.01,28.84,49.21c0.88,8.2,2.85,22.63,4.32,22.48 c2.7-0.27,4.46-25.95,9.64-36.34c3.93-7.89,7.81-11.22,7.71-11.91s-13.29-3.87-18.25-2.93C26.59,21.59,26.69,23.25,26.69,23.25z" fill="#787878"/>
</svg>

<svg viewBox="0 0 128 128" xmlns="http://www.w3.org/2000/svg">
  <defs/>
  <path d="M17.99,18.27 C17.81,17 17.6,11.45 12.76,11.94 C8.72,12.35 8.94,16.7 9.33,18.73 C9.55,19.88 22.33,121.15 22.5,122.25 C22.73,123.72 24.78,125.25 27.12,125.01 C29.46,124.78 30.83,122.96 30.78,121.23 C30.74,119.91 18.23,20 17.99,18.27 Z" fill="#B0B0B0"/>
  <path d="M25.84,118.75 C25.22,118.75 24.68,118.29 24.6,117.66 L11.5,16.54 C11.41,15.86 11.89,15.23 12.58,15.14 C13.27,15.05 13.89,15.54 13.98,16.22 L27.08,117.34 C27.17,118.02 26.69,118.65 26,118.74 C25.95,118.75 25.9,118.75 25.84,118.75 Z" fill="#C8C8C8"/>
  <path d="M18.08,19.17 L26.18,84.19 C26.18,84.19 28.87,80.69 36.38,80.84 C41.6,80.95 49.58,82.06 59.99,78.57 C73.81,73.94 81.47,66.06 96.57,63.42 C107.96,61.43 118.35,63.56 118.61,62.93 C118.82,62.44 118.29,59.06 118.24,59.07 C117.24,59.23 85.93,40.64 85.93,40.64 L21.39,17.26 C21.39,17.26 20.74,17.7 19.54,18.3 C18.62,18.75 18.08,19.17 18.08,19.17 Z" fill="#2F2F2F"/>
  <path d="M21.36,17.23 C21.36,17.23 23.92,15.2 30.18,14.77 C41.15,14.01 46.12,17.23 56.02,15.06 C66.93,12.66 74.25,5.07 85.68,3.59 C98.71,1.9 107.01,5.94 107.01,5.94 C107.01,5.94 110.78,17.97 113.21,31.47 C115.46,44 118.24,59.08 118.24,59.08 L114.79,58.57 L21.99,22.19 L21.36,17.23 Z" fill="#434343"/>
  <path d="M104.53,8.47 C103.42,7.6 92.15,4.38 81.87,7.23 C71.59,10.08 66.64,16.14 56.61,18.5 C46.58,20.86 38.78,17.7 33.21,18.15 C23.92,18.89 21.9,21.61 21.9,21.61 L28.63,77.43 C28.63,77.43 31.88,76.47 36.68,76.54 C43.9,76.64 49.13,77.19 57.68,74.72 C66.23,72.25 78.34,64.27 89.94,60.68 C104.05,56.31 115.53,59.07 115.42,58.62 C115.31,58.16 112.45,43.14 109.72,28.91 C107.01,14.66 104.53,8.47 104.53,8.47 Z" fill="#434343"/>
  <path d="M67.4,19.85 C67,22.27 68.76,41.3 66.51,49.89 C64.26,58.48 59.58,65.02 56.55,67.95 C53.52,70.88 51.96,72.54 52.45,73.12 C52.94,73.7 60.16,71.07 67.77,66.58 C75.38,62.09 78.51,59.55 79.29,58.38 C80.07,57.21 82.51,48.82 83.58,39.84 C84.65,30.86 85.64,18.78 86.12,15.54 C86.51,12.9 87.49,10.17 86.9,9.98 C86.31,9.78 80.8,10.44 76.26,12.71 C71.59,15.05 67.74,17.76 67.4,19.85 Z" fill="#787878"/>
  <path d="M26.69,23.25 C26.4,25 27.96,41.01 28.84,49.21 C29.72,57.41 31.69,71.84 33.16,71.69 C35.86,71.42 37.62,45.74 42.8,35.35 C46.73,27.46 50.61,24.13 50.51,23.44 C50.41,22.75 37.22,19.57 32.26,20.51 C26.59,21.59 26.69,23.25 26.69,23.25 Z" fill="#787878"/>
</svg>
